src/app/icon.svg

<svg xmlns="http://www.w3.org/2000/svg" viewBox="0 0 64 64">
  <!-- Paulitakes mark (BRAND-2, reworked in BRAND-4): ember tile + flame-P
       monogram — the bowl's crest and its counter are both drawn as flame
       licks ("hot takes"), as paths (no font dependency). Must still read as
       a plain P at 16px. Keep in sync with src/components/brand-mark.tsx. -->
  <rect width="64" height="64" rx="14" fill="#c33f00" />
  <path
    fill="#fff8f4"
    fill-rule="evenodd"
    d="M20 12h13c2 0 3.5-1.7 4-3.6.3-1.4.5-2.9.4-4.4 5 4 8.6 10.4 8.6 21 0 7.18-5.82 13-13 13h-3v14H20V12Zm10 8v10h3c2.76 0 5-2.24 5-5 0-1.9-.9-3.4-2.6-4.3.3 1.2 0 2.1-.9 2.7-.1-1.5-.9-2.6-2.4-3.4H30Z"
  />
</svg>

<svg xmlns="http://www.w3.org/2000/svg" viewBox="0 0 64 64">
  <!-- Paulitakes mark (BRAND-2, reworked in BRAND-4): ember tile + flame-P
       monogram — the bowl's crest is a twin-tongue flame and its counter a
       flame lick ("hot takes"), as paths (no font dependency). Must still read as
       a plain P at 16px. Keep in sync with src/components/brand-mark.tsx. -->
  <rect width="64" height="64" rx="14" fill="#c33f00" />
  <path
    fill="#fff8f4"
    fill-rule="evenodd"
    d="M20 12H33C35 12 36.3 10.2 36.6 8C36.9 6.5 36.9 5 36.8 3.5C38.4 4.6 39.7 6.2 40.5 8.5C41.2 7.9 42.2 7.2 43.5 6.5C45 9.5 46 16 46 25C46 32.18 40.18 38 33 38H30V52H20ZM30 20V30H33C35.76 30 38 27.76 38 25C38 23.1 37.1 21.6 35.4 20.7C35.7 21.9 35.4 22.8 34.5 23.4C34.4 21.9 33.6 20.8 32.1 20H30Z"
  />
</svg>
